X: 22157
T: L'Air Mignonne
R: barndance
M: 4/4
K: Amajor
EAB|c3e cBAB|c3e cBAB|F3A E3 c|BAGA BEAB|
c3e cBAB|c3e cBAB|F3A E3 c|BAGB ABce||
f3a fece|f3a fecA|F3A E3c|BAGA BEce|
f3a fece|f3a fecA|F3A E3c|BAGB A||

